!!!OTL: Verschnapplied (2-99) S. 289
!!!id: P0970
**kern
*clefG2
*k[b-]
*F:
{8c
=1
8c
8f
8f
8f
=2
8e
16g
16g
8g}
=3
{8g
=4
8.g
16g
8g
8g
=5
4a
8f}
=6
{16f
16f
=7
8a
8a
8g
8g
=8
8cc
16a
16a
8g
8g}
=9
{8cc
16cc
16b-
8a
8f
=10
4g
8f}
==
*-
!!!minrhy: 16
!!!meters: 2/4 ]  ZZ[4
!!!cut: Verschnapplied (2-99) S. 289
!!!reg: Lothringen
!!!trd: PINCK, Louis: Verklingende Weisen, Bd 2, Metz 1928
!!!rhy1: X_  X_X_X_X_  X_XXX_
!!!rhy2: X_  X_.XX_X_  X__X_
!!!key: P0970  16  F 2/4 ]  ZZ[4
!!!mod: SECHSTONSKALA DUR ?]  AMBITUS[8
!!!kad: 2121
!!!akz: -5-7_23_35_52_
!!!fot: 'a__b__c__d__
!!!for: 'a__b__aw_c__
!!!fok: '/__\__^a_\__
!! PHRAS[VORWIEGEND AUFTAKTIG]
!!!fkt: ???
!! LOTH VKL
!! PR[41] 2K[3] 2G[9] 3K[6] 3G[6] 4A[3] 4Ü[0] 5A[0] 6K[0] 6G[0]
!! 7K[0] 7G[0] 8A[0] MEHR[0] SI[28] ABS[32] SR[13] SP[16]
!! ST[9] 2k[6] 2g[19] 3k[3] 3g[3] 4d[0] 4ü[0] 5d[0] 6k[0] 6g[0]
!! 7k[0] 7g[0] 8d[0] mehr[0] si[31] dm[-3] sr[25] sp[6]
!! 1F[6] 2F[88] 3F[3] 4F[0] LF[0] 2P[0] 3P[3] 4P[0] TRI[0] DF[4] AB[34]
!! TF[0] U3K[0] U3[0] U4[0] U4Ü[0] U5[6] U6K[0] U6[0] U7K[0] U7[3]
!! N1[21] N2K[0] N2[18] N3K[0] N3[27] N4[12] N4Ü[0] N5[9] N6K[0] N6[3]
!!!n7k: 0] N7[0] O1[0] O2K[0] O2[0] O3K[0] O3[0] HÖ[0
